packages/icons/svg/24/AddPeople.svg

<svg width="24" height="24" viewBox="0 0 24 24" fill="none" xmlns="http://www.w3.org/2000/svg">
<path d="M17 3C17.5523 3 18 3.44772 18 4V6H20C20.5523 6 21 6.44772 21 7C21 7.55228 20.5523 8 20 8H18V10C18 10.5523 17.5523 11 17 11C16.4477 11 16 10.5523 16 10V8H14C13.4477 8 13 7.55228 13 7C13 6.44772 13.4477 6 14 6H16V4C16 3.44772 16.4477 3 17 3Z" fill="#858585"/>
<path fill-rule="evenodd" clip-rule="evenodd" d="M8.5 14.5C10.5711 14.5 12.25 12.8211 12.25 10.75C12.25 8.67893 10.5711 7 8.5 7C6.42893 7 4.75 8.67893 4.75 10.75C4.75 12.8211 6.42893 14.5 8.5 14.5ZM8.5 14.5C5.46243 14.5 3 16.881 3 19.8182V20C3 20.5523 3.44772 21 4 21H13C13.5523 21 14 20.5523 14 20V19.8182C14 16.881 11.5376 14.5 8.5 14.5Z" fill="#858585"/>
</svg>

<svg width="24" height="24" fill="none" xmlns="http://www.w3.org/2000/svg" viewBox="0 0 24 24"><path d="M17 3a1 1 0 011 1v2h2a1 1 0 110 2h-2v2a1 1 0 11-2 0V8h-2a1 1 0 110-2h2V4a1 1 0 011-1z" fill="currentColor"></path><path fill-rule="evenodd" clip-rule="evenodd" d="M8.5 14.5a3.75 3.75 0 100-7.5 3.75 3.75 0 000 7.5zm0 0c-3.038 0-5.5 2.381-5.5 5.318V20a1 1 0 001 1h9a1 1 0 001-1v-.182c0-2.937-2.462-5.318-5.5-5.318z" fill="currentColor"></path></svg>
